dist/img/visa.svg

<svg width="63" height="20" viewBox="0 0 63 20" fill="none" xmlns="http://www.w3.org/2000/svg">
<path d="M31.1653 0.364964L26.9628 19.6715H21.8678L26.1074 0.364964H31.1653ZM52.5868 12.8102L55.2645 5.54745L56.7893 12.8102H52.5868ZM58.2769 19.6715H63L58.8719 0.364964H54.5207C53.5537 0.364964 52.7355 0.912409 52.3636 1.78832L44.7397 19.6715H50.095L51.1364 16.7883H57.6446L58.2769 19.6715ZM45 13.3577C45.0372 8.24817 37.8223 7.9927 37.8595 5.69343C37.8595 5 38.5289 4.27007 40.0165 4.08759C40.7603 3.9781 42.7686 3.90511 45.0372 4.9635L45.9298 0.875912C44.7025 0.40146 43.1405 0 41.1694 0C36.1488 0 32.6157 2.62774 32.5785 6.38686C32.5413 9.16058 35.1074 10.7299 37.0413 11.6423C39.0124 12.5912 39.6818 13.2117 39.6818 14.0511C39.6818 15.365 38.0826 15.9124 36.6322 15.9489C34.0661 15.9854 32.5785 15.2555 31.3884 14.7445L30.4587 18.9781C31.6488 19.5255 33.843 19.9635 36.1116 20C41.4669 19.9635 44.9628 17.3723 45 13.3577ZM23.9132 0.364964L15.657 19.6715H10.3017L6.21074 4.23358C5.95041 3.28467 5.76446 2.9562 5.02066 2.55474C3.79339 1.89781 1.78512 1.27737 0 0.912409L0.11157 0.364964H8.77686C9.89256 0.364964 10.8595 1.09489 11.1198 2.33577L13.2769 13.5036L18.5579 0.364964H23.9132Z" fill="#2A2A6C"/>
</svg>

<svg width="63" height="20" fill="none" xmlns="http://www.w3.org/2000/svg"><path d="M31.165.365l-4.202 19.306h-5.095L26.108.366h5.057zM52.587 12.81l2.677-7.263 1.525 7.263h-4.202zm5.69 6.862H63L58.872.365H54.52a2.3 2.3 0 00-2.157 1.423L44.74 19.672h5.355l1.041-2.884h6.509l.632 2.884zM45 13.358c.037-5.11-7.178-5.365-7.14-7.665 0-.693.669-1.423 2.157-1.605.743-.11 2.752-.183 5.02.875L45.93.877A12.975 12.975 0 0041.17 0c-5.021 0-8.554 2.628-8.592 6.387-.037 2.774 2.53 4.343 4.463 5.255 1.971.95 2.64 1.57 2.64 2.41 0 1.313-1.598 1.86-3.049 1.897-2.566.036-4.053-.694-5.244-1.204l-.93 4.233c1.19.547 3.385.985 5.654 1.022 5.355-.037 8.85-2.628 8.888-6.642zM23.913.365l-8.256 19.307h-5.355L6.21 4.234c-.26-.95-.447-1.278-1.19-1.68C3.793 1.899 1.785 1.278 0 .913L.112.365h8.665c1.116 0 2.083.73 2.343 1.97l2.157 11.169L18.557.365h5.356z" fill="#2A2A6C"/></svg>
